X: 5787
T: Cáit's Jig
R: jig
M: 6/8
K: Gmajor
|:EGF EDB,|GAB d2g|e/2f/2ge dBG|AGA BAG|
EGF EDB,|GAB dgf|e/2f/2ge dBG|1 AGF G2F:|2 AGF Ggf||
|:ege edB|ded d2g|e/2f/2ge edB|deg agf|
[1 ege edB|ded dcB|c3 BdB|GAB dgf:|
[2 gag fed|edB c2A|B3 GAB|AGF G2F||

